; generated by Slic3r 1.3.0 on 2022-06-21 at 08:23:04

; external perimeters extrusion width = 0.55mm (7.28mm^3/s)
; perimeters extrusion width = 0.70mm (11.44mm^3/s)
; infill extrusion width = 0.63mm (13.45mm^3/s)
; solid infill extrusion width = 0.70mm (3.81mm^3/s)
; top infill extrusion width = 0.70mm (2.86mm^3/s)

M107
M104 S200 ; set temperature
G28 ; home all axes
G1 Z5 F5000 ; lift nozzle

; Filament gcode

M109 S200 ; set temperature and wait for it to be reached
G21 ; set units to millimeters
G90 ; use absolute coordinates
M82 ; use absolute distances for extrusion
G92 E0
G1 Z0.350 F7800.000
G1 E-2.00000 F2400.00000
G92 E0
G1 X91.246 Y47.753 F7800.000
G1 E2.00000 F2400.00000
G1 F1800
G1 X92.389 Y45.777 E2.06340
G1 X94.139 Y44.312 E2.12679
G1 X97.410 Y43.439 E2.22083
G1 X102.590 Y43.439 E2.36474
G1 X104.838 Y43.836 E2.42813
G1 X106.813 Y44.979 E2.49153
G1 X108.278 Y46.729 E2.55493
G1 X109.151 Y50.000 E2.64897
G1 X109.151 Y150.000 E5.42674
G1 X108.754 Y152.247 E5.49014
G1 X107.611 Y154.223 E5.55354
G1 X105.861 Y155.688 E5.61693
G1 X102.590 Y156.561 E5.71097
G1 X97.410 Y156.561 E5.85488
G1 X95.162 Y156.164 E5.91827
G1 X93.187 Y155.021 E5.98167
G1 X91.722 Y153.271 E6.04507
G1 X90.849 Y150.000 E6.13911
G1 X90.849 Y50.000 E8.91689
G1 X91.233 Y47.826 E8.97820
G1 E6.97820 F2400.00000
G92 E0
G1 X101.236 Y51.354 F7800.000
G1 E2.00000 F2400.00000
G1 F1800
G1 X101.236 Y148.646 E4.70256
G1 X98.764 Y148.646 E4.77124
G1 X98.764 Y51.354 E7.47380
G1 X101.161 Y51.354 E7.54040
G1 X101.797 Y50.793 F7800.000
G1 F1800
G1 X101.797 Y149.207 E10.27413
G1 X98.203 Y149.207 E10.37398
G1 X98.203 Y50.793 E13.10771
G1 X101.722 Y50.793 E13.20548
G1 X102.315 Y50.275 F7800.000
G1 F1800
G1 X102.315 Y149.725 E15.54395
G1 X97.685 Y149.725 E15.65283
G1 X97.685 Y50.275 E17.99131
G1 X102.240 Y50.275 E18.09843
G1 X102.308 Y50.775 F7800.000
G1 E16.09843 F2400.00000
G92 E0
G1 X99.543 Y51.697 F7800.000
G1 E2.00000 F2400.00000
G1 F1800
G1 X99.106 Y52.133 E2.01728
G1 X99.106 Y52.933 E2.03965
G1 X100.342 Y51.697 E2.08857
G1 X100.894 Y51.697 E2.10399
G1 X100.894 Y51.945 E2.11094
G1 X99.106 Y53.732 E2.18167
G1 X99.106 Y54.531 E2.20404
G1 X100.894 Y52.744 E2.27477
G1 X100.894 Y53.544 E2.29714
G1 X99.106 Y55.331 E2.36787
G1 X99.106 Y56.130 E2.39024
G1 X100.894 Y54.343 E2.46098
G1 X100.894 Y55.142 E2.48335
G1 X99.106 Y56.929 E2.55408
G1 X99.106 Y57.729 E2.57645
G1 X100.894 Y55.942 E2.64718
G1 X100.894 Y56.741 E2.66955
G1 X99.106 Y58.528 E2.74028
G1 X99.106 Y59.327 E2.76266
G1 X100.894 Y57.540 E2.83339
G1 X100.894 Y58.340 E2.85576
G1 X99.106 Y60.127 E2.92649
G1 X99.106 Y60.926 E2.94886
G1 X100.894 Y59.139 E3.01959
G1 X100.894 Y59.938 E3.04196
G1 X99.106 Y61.725 E3.11269
G1 X99.106 Y62.525 E3.13507
G1 X100.894 Y60.738 E3.20580
G1 X100.894 Y61.537 E3.22817
G1 X99.106 Y63.324 E3.29890
G1 X99.106 Y64.124 E3.32127
G1 X100.894 Y62.336 E3.39200
G1 X100.894 Y63.136 E3.41437
G1 X99.106 Y64.923 E3.48511
G1 X99.106 Y65.722 E3.50748
G1 X100.894 Y63.935 E3.57821
G1 X100.894 Y64.734 E3.60058
G1 X99.106 Y66.522 E3.67131
G1 X99.106 Y67.321 E3.69368
G1 X100.894 Y65.534 E3.76441
G1 X100.894 Y66.333 E3.78679
G1 X99.106 Y68.120 E3.85752
G1 X99.106 Y68.920 E3.87989
G1 X100.894 Y67.133 E3.95062
G1 X100.894 Y67.932 E3.97299
G1 X99.106 Y69.719 E4.04372
G1 X99.106 Y70.518 E4.06609
G1 X100.894 Y68.731 E4.13682
G1 X100.894 Y69.531 E4.15920
G1 X99.106 Y71.318 E4.22993
G1 X99.106 Y72.117 E4.25230
G1 X100.894 Y70.330 E4.32303
G1 X100.894 Y71.129 E4.34540
G1 X99.106 Y72.916 E4.41613
G1 X99.106 Y73.716 E4.43850
G1 X100.894 Y71.929 E4.50924
G1 X100.894 Y72.728 E4.53161
G1 X99.106 Y74.515 E4.60234
G1 X99.106 Y75.314 E4.62471
G1 X100.894 Y73.527 E4.69544
G1 X100.894 Y74.327 E4.71781
G1 X99.106 Y76.114 E4.78854
G1 X99.106 Y76.913 E4.81091
G1 X100.894 Y75.126 E4.88165
G1 X100.894 Y75.925 E4.90402
G1 X99.106 Y77.712 E4.97475
G1 X99.106 Y78.512 E4.99712
G1 X100.894 Y76.725 E5.06785
G1 X100.894 Y77.524 E5.09022
G1 X99.106 Y79.311 E5.16095
G1 X99.106 Y80.110 E5.18333
G1 X100.894 Y78.323 E5.25406
G1 X100.894 Y79.123 E5.27643
G1 X99.106 Y80.910 E5.34716
G1 X99.106 Y81.709 E5.36953
G1 X100.894 Y79.922 E5.44026
G1 X100.894 Y80.721 E5.46263
G1 X99.106 Y82.509 E5.53336
G1 X99.106 Y83.308 E5.55574
G1 X100.894 Y81.521 E5.62647
G1 X100.894 Y82.320 E5.64884
G1 X99.106 Y84.107 E5.71957
G1 X99.106 Y84.907 E5.74194
G1 X100.894 Y83.120 E5.81267
G1 X100.894 Y83.919 E5.83504
G1 X99.106 Y85.706 E5.90578
G1 X99.106 Y86.505 E5.92815
G1 X100.894 Y84.718 E5.99888
G1 X100.894 Y85.518 E6.02125
G1 X99.106 Y87.305 E6.09198
G1 X99.106 Y88.104 E6.11435
G1 X100.894 Y86.317 E6.18508
G1 X100.894 Y87.116 E6.20746
G1 X99.106 Y88.903 E6.27819
G1 X99.106 Y89.703 E6.30056
G1 X100.894 Y87.916 E6.37129
G1 X100.894 Y88.715 E6.39366
G1 X99.106 Y90.502 E6.46439
G1 X99.106 Y91.301 E6.48676
G1 X100.894 Y89.514 E6.55749
G1 X100.894 Y90.314 E6.57987
G1 X99.106 Y92.101 E6.65060
G1 X99.106 Y92.900 E6.67297
G1 X100.894 Y91.113 E6.74370
G1 X100.894 Y91.912 E6.76607
G1 X99.106 Y93.699 E6.83680
G1 X99.106 Y94.499 E6.85917
G1 X100.894 Y92.712 E6.92991
G1 X100.894 Y93.511 E6.95228
G1 X99.106 Y95.298 E7.02301
G1 X99.106 Y96.097 E7.04538
G1 X100.894 Y94.310 E7.11611
G1 X100.894 Y95.110 E7.13848
G1 X99.106 Y96.897 E7.20921
G1 X99.106 Y97.696 E7.23158
G1 X100.894 Y95.909 E7.30232
G1 X100.894 Y96.708 E7.32469
G1 X99.106 Y98.496 E7.39542
G1 X99.106 Y99.295 E7.41779
G1 X100.894 Y97.508 E7.48852
G1 X100.894 Y98.307 E7.51089
G1 X99.106 Y100.094 E7.58162
G1 X99.106 Y100.894 E7.60400
G1 X100.894 Y99.106 E7.67473
G1 X100.894 Y99.906 E7.69710
G1 X99.106 Y101.693 E7.76783
G1 X99.106 Y102.492 E7.79020
G1 X100.894 Y100.705 E7.86093
G1 X100.894 Y101.505 E7.88330
G1 X99.106 Y103.292 E7.95403
G1 X99.106 Y104.091 E7.97641
G1 X100.894 Y102.304 E8.04714
G1 X100.894 Y103.103 E8.06951
G1 X99.106 Y104.890 E8.14024
G1 X99.106 Y105.690 E8.16261
G1 X100.894 Y103.903 E8.23334
G1 X100.894 Y104.702 E8.25571
G1 X99.106 Y106.489 E8.32645
G1 X99.106 Y107.288 E8.34882
G1 X100.894 Y105.501 E8.41955
G1 X100.894 Y106.301 E8.44192
G1 X99.106 Y108.088 E8.51265
G1 X99.106 Y108.887 E8.53502
G1 X100.894 Y107.100 E8.60575
G1 X100.894 Y107.899 E8.62812
G1 X99.106 Y109.686 E8.69886
G1 X99.106 Y110.486 E8.72123
G1 X100.894 Y108.699 E8.79196
G1 X100.894 Y109.498 E8.81433
G1 X99.106 Y111.285 E8.88506
G1 X99.106 Y112.084 E8.90743
G1 X100.894 Y110.297 E8.97816
G1 X100.894 Y111.097 E9.00053
G1 X99.106 Y112.884 E9.07127
G1 X99.106 Y113.683 E9.09364
G1 X100.894 Y111.896 E9.16437
G1 X100.894 Y112.695 E9.18674
G1 X99.106 Y114.482 E9.25747
G1 X99.106 Y115.282 E9.27984
G1 X100.894 Y113.495 E9.35057
G1 X100.894 Y114.294 E9.37295
G1 X99.106 Y116.081 E9.44368
G1 X99.106 Y116.881 E9.46605
G1 X100.894 Y115.093 E9.53678
G1 X100.894 Y115.893 E9.55915
G1 X99.106 Y117.680 E9.62988
G1 X99.106 Y118.479 E9.65225
G1 X100.894 Y116.692 E9.72298
G1 X100.894 Y117.492 E9.74536
G1 X99.106 Y119.279 E9.81609
G1 X99.106 Y120.078 E9.83846
G1 X100.894 Y118.291 E9.90919
G1 X100.894 Y119.090 E9.93156
G1 X99.106 Y120.877 E10.00229
G1 X99.106 Y121.677 E10.02466
G1 X100.894 Y119.890 E10.09539
G1 X100.894 Y120.689 E10.11777
G1 X99.106 Y122.476 E10.18850
G1 X99.106 Y123.275 E10.21087
G1 X100.894 Y121.488 E10.28160
G1 X100.894 Y122.288 E10.30397
G1 X99.106 Y124.075 E10.37470
G1 X99.106 Y124.874 E10.39707
G1 X100.894 Y123.087 E10.46781
G1 X100.894 Y123.886 E10.49018
G1 X99.106 Y125.673 E10.56091
G1 X99.106 Y126.473 E10.58328
G1 X100.894 Y124.686 E10.65401
G1 X100.894 Y125.485 E10.67638
G1 X99.106 Y127.272 E10.74711
G1 X99.106 Y128.071 E10.76948
G1 X100.894 Y126.284 E10.84022
G1 X100.894 Y127.084 E10.86259
G1 X99.106 Y128.871 E10.93332
G1 X99.106 Y129.670 E10.95569
G1 X100.894 Y127.883 E11.02642
G1 X100.894 Y128.682 E11.04879
G1 X99.106 Y130.469 E11.11952
G1 X99.106 Y131.269 E11.14190
G1 X100.894 Y129.482 E11.21263
G1 X100.894 Y130.281 E11.23500
G1 X99.106 Y132.068 E11.30573
G1 X99.106 Y132.867 E11.32810
G1 X100.894 Y131.080 E11.39883
G1 X100.894 Y131.880 E11.42120
G1 X99.106 Y133.667 E11.49193
G1 X99.106 Y134.466 E11.51431
G1 X100.894 Y132.679 E11.58504
G1 X100.894 Y133.478 E11.60741
G1 X99.106 Y135.266 E11.67814
G1 X99.106 Y136.065 E11.70051
G1 X100.894 Y134.278 E11.77124
G1 X100.894 Y135.077 E11.79361
G1 X99.106 Y136.864 E11.86434
G1 X99.106 Y137.664 E11.88672
G1 X100.894 Y135.877 E11.95745
G1 X100.894 Y136.676 E11.97982
G1 X99.106 Y138.463 E12.05055
G1 X99.106 Y139.262 E12.07292
G1 X100.894 Y137.475 E12.14365
G1 X100.894 Y138.275 E12.16602
G1 X99.106 Y140.062 E12.23676
G1 X99.106 Y140.861 E12.25913
G1 X100.894 Y139.074 E12.32986
G1 X100.894 Y139.873 E12.35223
G1 X99.106 Y141.660 E12.42296
G1 X99.106 Y142.460 E12.44533
G1 X100.894 Y140.673 E12.51606
G1 X100.894 Y141.472 E12.53843
G1 X99.106 Y143.259 E12.60917
G1 X99.106 Y144.058 E12.63154
G1 X100.894 Y142.271 E12.70227
G1 X100.894 Y143.071 E12.72464
G1 X99.106 Y144.858 E12.79537
G1 X99.106 Y145.657 E12.81774
G1 X100.894 Y143.870 E12.88847
G1 X100.894 Y144.669 E12.91085
G1 X99.106 Y146.456 E12.98158
G1 X99.106 Y147.256 E13.00395
G1 X100.894 Y145.469 E13.07468
G1 X100.894 Y146.268 E13.09705
G1 X99.106 Y148.055 E13.16778
G1 X99.106 Y148.303 E13.17473
G1 X99.658 Y148.303 E13.19015
G1 X100.894 Y147.067 E13.23907
G1 X100.894 Y147.867 E13.26144
G1 X100.457 Y148.303 E13.27871
G1 Z0.650 F7800.000
G1 E11.27871 F2400.00000
G92 E0
G1 X102.840 Y148.529 F7800.000
G1 E2.00000 F2400.00000
G1 F3600
G1 X97.160 Y148.529 E2.15324

G1 F3600
G1 X96.946 Y148.529 E2.15917
G1 X96.946 Y51.471 E4.85521
G1 X97.160 Y51.471 E4.86114

G1 F3600
G1 X102.840 Y51.471 E5.01438

G1 F3600
G1 X103.054 Y51.471 E5.02031
G1 X103.054 Y148.529 E7.71635
G1 X102.915 Y148.529 E7.72019

G1 X103.689 Y149.164 F7800.000

G1 F3600
G1 X102.840 Y149.164 E7.74378

G1 F3600
G1 X97.160 Y149.164 E7.89702

G1 F3600
G1 X96.311 Y149.164 E7.92060
G1 X96.311 Y50.836 E10.65196
G1 X97.160 Y50.836 E10.67554

G1 F3600
G1 X102.840 Y50.836 E10.82878

G1 F3600
G1 X103.689 Y50.836 E10.85237
G1 X103.689 Y149.089 E13.58164

G1 X104.250 Y149.725 F7800.000

G1 F3600
G1 X102.840 Y149.725 E13.62079

G1 F3000
G1 X97.160 Y149.725 E13.73787

G1 F3600
G1 X95.750 Y149.725 E13.77703
G1 X95.750 Y50.275 E16.53953
G1 X97.160 Y50.275 E16.57869

G1 F3000
G1 X102.840 Y50.275 E16.69576

G1 F3600
G1 X104.250 Y50.275 E16.73492
G1 X104.250 Y149.650 E19.49534

G1 E17.49534 F2400.00000
G92 E0
G1 X102.461 Y148.262 F7800.000
G1 E2.00000 F2400.00000

G1 F3600
G1 X102.461 Y51.738 E5.84621
G1 X101.812 Y51.738 E5.87207
G1 X101.812 Y148.262 E9.71828
G1 X101.163 Y148.262 E9.74414
G1 X101.163 Y51.738 E13.59035
G1 X100.514 Y51.738 E13.61621
G1 X100.514 Y148.262 E17.46242
G1 X99.865 Y148.262 E17.48827
G1 X99.865 Y51.738 E21.33449

G1 X99.641 Y52.064 F7800.000

G1 F3600
G1 X97.213 Y52.064 E21.40221
G1 X97.213 Y52.615 E21.41757
G1 X99.641 Y52.615 E21.48529
G1 X99.641 Y53.166 E21.50065
G1 X97.213 Y53.166 E21.56837
G1 X97.213 Y53.717 E21.58374
G1 X99.641 Y53.717 E21.65146
G1 X99.641 Y54.268 E21.66682
G1 X97.213 Y54.268 E21.73454
G1 X97.213 Y54.819 E21.74990
G1 X99.641 Y54.819 E21.81762
G1 X99.641 Y55.370 E21.83299
G1 X97.213 Y55.370 E21.90070
G1 X97.213 Y55.921 E21.91607
G1 X99.641 Y55.921 E21.98379
G1 X99.641 Y56.472 E21.99915
G1 X97.213 Y56.472 E22.06687
G1 X97.213 Y57.023 E22.08224
G1 X99.641 Y57.023 E22.14995
G1 X99.641 Y57.574 E22.16532
G1 X97.213 Y57.574 E22.23304
G1 X97.213 Y58.125 E22.24840
G1 X99.641 Y58.125 E22.31612
G1 X99.641 Y58.676 E22.33149
G1 X97.213 Y58.676 E22.39920
G1 X97.213 Y59.227 E22.41457
G1 X99.641 Y59.227 E22.48229
G1 X99.641 Y59.778 E22.49765
G1 X97.213 Y59.778 E22.56537
G1 X97.213 Y60.329 E22.58074
G1 X99.641 Y60.329 E22.64845
G1 X99.641 Y60.880 E22.66382
G1 X97.213 Y60.880 E22.73154
G1 X97.213 Y61.431 E22.74690
G1 X99.641 Y61.431 E22.81462
G1 X99.641 Y61.982 E22.82998
G1 X97.213 Y61.982 E22.89770
G1 X97.213 Y62.533 E22.91307
G1 X99.641 Y62.533 E22.98079
G1 X99.641 Y63.084 E22.99615
G1 X97.213 Y63.084 E23.06387
G1 X97.213 Y63.635 E23.07923
G1 X99.641 Y63.635 E23.14695
G1 X99.641 Y64.186 E23.16232
G1 X97.213 Y64.186 E23.23003
G1 X97.213 Y64.737 E23.24540
G1 X99.641 Y64.737 E23.31312
G1 X99.641 Y65.288 E23.32848
G1 X97.213 Y65.288 E23.39620
G1 X97.213 Y65.839 E23.41157
G1 X99.641 Y65.839 E23.47928
G1 X99.641 Y66.390 E23.49465
G1 X97.213 Y66.390 E23.56237
G1 X97.213 Y66.941 E23.57773
G1 X99.641 Y66.941 E23.64545
G1 X99.641 Y67.492 E23.66082
G1 X97.213 Y67.492 E23.72853
G1 X97.213 Y68.043 E23.74390
G1 X99.641 Y68.043 E23.81162
G1 X99.641 Y68.594 E23.82698
G1 X97.213 Y68.594 E23.89470
G1 X97.213 Y69.145 E23.91007
G1 X99.641 Y69.145 E23.97778
G1 X99.641 Y69.696 E23.99315
G1 X97.213 Y69.696 E24.06087
G1 X97.213 Y70.247 E24.07623
G1 X99.641 Y70.247 E24.14395
G1 X99.641 Y70.798 E24.15931
G1 X97.213 Y70.798 E24.22703
G1 X97.213 Y71.349 E24.24240
G1 X99.641 Y71.349 E24.31012
G1 X99.641 Y71.900 E24.32548
G1 X97.213 Y71.900 E24.39320
G1 X97.213 Y72.451 E24.40856
G1 X99.641 Y72.451 E24.47628
G1 X99.641 Y73.002 E24.49165
G1 X97.213 Y73.002 E24.55936
G1 X97.213 Y73.553 E24.57473
G1 X99.641 Y73.553 E24.64245
G1 X99.641 Y74.104 E24.65781
G1 X97.213 Y74.104 E24.72553
G1 X97.213 Y74.655 E24.74090
G1 X99.641 Y74.655 E24.80861
G1 X99.641 Y75.206 E24.82398
G1 X97.213 Y75.206 E24.89170
G1 X97.213 Y75.757 E24.90706
G1 X99.641 Y75.757 E24.97478
G1 X99.641 Y76.308 E24.99015
G1 X97.213 Y76.308 E25.05786
G1 X97.213 Y76.859 E25.07323
G1 X99.641 Y76.859 E25.14095
G1 X99.641 Y77.410 E25.15631
G1 X97.213 Y77.410 E25.22403
G1 X97.213 Y77.961 E25.23940
G1 X99.641 Y77.961 E25.30711
G1 X99.641 Y78.512 E25.32248
G1 X97.213 Y78.512 E25.39020
G1 X97.213 Y79.062 E25.40556
G1 X99.641 Y79.062 E25.47328
G1 X99.641 Y79.613 E25.48864
G1 X97.213 Y79.613 E25.55636
G1 X97.213 Y80.164 E25.57173
G1 X99.641 Y80.164 E25.63944
G1 X99.641 Y80.715 E25.65481
G1 X97.213 Y80.715 E25.72253
G1 X97.213 Y81.266 E25.73789
G1 X99.641 Y81.266 E25.80561
G1 X99.641 Y81.817 E25.82098
G1 X97.213 Y81.817 E25.88869
G1 X97.213 Y82.368 E25.90406
G1 X99.641 Y82.368 E25.97178
G1 X99.641 Y82.919 E25.98714
G1 X97.213 Y82.919 E26.05486
G1 X97.213 Y83.470 E26.07023
G1 X99.641 Y83.470 E26.13794
G1 X99.641 Y84.021 E26.15331
G1 X97.213 Y84.021 E26.22103
G1 X97.213 Y84.572 E26.23639
G1 X99.641 Y84.572 E26.30411
G1 X99.641 Y85.123 E26.31948
G1 X97.213 Y85.123 E26.38719
G1 X97.213 Y85.674 E26.40256
G1 X99.641 Y85.674 E26.47028
G1 X99.641 Y86.225 E26.48564
G1 X97.213 Y86.225 E26.55336
G1 X97.213 Y86.776 E26.56872
G1 X99.641 Y86.776 E26.63644
G1 X99.641 Y87.327 E26.65181
G1 X97.213 Y87.327 E26.71952
G1 X97.213 Y87.878 E26.73489
G1 X99.641 Y87.878 E26.80261
G1 X99.641 Y88.429 E26.81797
G1 X97.213 Y88.429 E26.88569
G1 X97.213 Y88.980 E26.90106
G1 X99.641 Y88.980 E26.96877
G1 X99.641 Y89.531 E26.98414
G1 X97.213 Y89.531 E27.05186
G1 X97.213 Y90.082 E27.06722
G1 X99.641 Y90.082 E27.13494
G1 X99.641 Y90.633 E27.15031
G1 X97.213 Y90.633 E27.21802
G1 X97.213 Y91.184 E27.23339
G1 X99.641 Y91.184 E27.30111
G1 X99.641 Y91.735 E27.31647
G1 X97.213 Y91.735 E27.38419
G1 X97.213 Y92.286 E27.39956
G1 X99.641 Y92.286 E27.46727
G1 X99.641 Y92.837 E27.48264
G1 X97.213 Y92.837 E27.55036
G1 X97.213 Y93.388 E27.56572
G1 X99.641 Y93.388 E27.63344
G1 X99.641 Y93.939 E27.64880
G1 X97.213 Y93.939 E27.71652
G1 X97.213 Y94.490 E27.73189
G1 X99.641 Y94.490 E27.79960
G1 X99.641 Y95.041 E27.81497
G1 X97.213 Y95.041 E27.88269
G1 X97.213 Y95.592 E27.89805
G1 X99.641 Y95.592 E27.96577
G1 X99.641 Y96.143 E27.98114
G1 X97.213 Y96.143 E28.04885
G1 X97.213 Y96.694 E28.06422
G1 X99.641 Y96.694 E28.13194
G1 X99.641 Y97.245 E28.14730
G1 X97.213 Y97.245 E28.21502
G1 X97.213 Y97.796 E28.23039
