; generated by Slic3r 1.3.0 on 2022-06-21 at 08:19:07

; external perimeters extrusion width = 0.55mm (7.28mm^3/s)
; perimeters extrusion width = 0.70mm (11.44mm^3/s)
; infill extrusion width = 0.63mm (13.45mm^3/s)
; solid infill extrusion width = 0.70mm (3.81mm^3/s)
; top infill extrusion width = 0.70mm (2.86mm^3/s)

M107
M104 S200 ; set temperature
G28 ; home all axes
G1 Z5 F5000 ; lift nozzle

; Filament gcode

M109 S200 ; set temperature and wait for it to be reached
G21 ; set units to millimeters
G90 ; use absolute coordinates
M82 ; use absolute distances for extrusion
G92 E0
G1 Z0.350 F7800.000
G1 E-2.00000 F2400.00000
G92 E0
G1 X91.724 Y117.457 F7800.000
G1 E2.00000 F2400.00000
G1 F687.309
G1 X93.706 Y116.325 E2.06340
G1 X95.249 Y115.974 E2.10735
G1 X95.674 Y115.938 E2.11920
G1 X98.680 Y115.792 E2.20281
G1 X101.436 Y115.793 E2.27936
G1 X104.326 Y115.938 E2.35973
G1 X104.753 Y115.974 E2.37163
G1 X106.947 Y116.600 E2.43503
G1 X108.795 Y117.939 E2.49843
G1 X110.072 Y119.831 E2.56182
G1 X110.624 Y122.046 E2.62522
G1 X110.383 Y124.315 E2.68862
G1 X109.380 Y126.365 E2.75201
G1 X107.735 Y127.947 E2.81541
G1 X105.648 Y128.870 E2.87881
G1 X104.078 Y129.061 E2.92272
G1 X95.922 Y129.061 E3.14930
G1 X93.674 Y128.664 E3.21270
G1 X91.699 Y127.521 E3.27609
G1 X90.234 Y125.771 E3.33949
G1 X89.458 Y123.625 E3.40289
G1 X89.464 Y121.342 E3.46628
G1 X90.251 Y119.200 E3.52968
G1 X91.676 Y117.515 E3.59099
G1 Z0.650 F7800.000
G1 Z0.950 F7800.000
G1 E1.59099 F2400.00000
G92 E0
G1 X103.617 Y122.225 F7800.000
G1 E2.00000 F2400.00000
G1 F600
G1 X96.348 Y122.225 E2.14982
G1 X98.727 Y122.103 E2.19893
G1 X101.348 Y122.105 E2.25295
G1 X103.542 Y122.221 E2.29822
G1 X103.117 Y122.221 F7800.000
M106 S255
G1 Z1.250 F7800.000
G1 E0.29822 F2400.00000
G92 E0
G1 X106.210 Y122.225 F7800.000
G1 E2.00000 F2400.00000
G1 F600
G1 X93.801 Y122.225 E2.25575
G1 X96.124 Y121.985 E2.30390
G1 X98.746 Y121.851 E2.35801
G1 X101.357 Y121.854 E2.41182
G1 X103.964 Y121.993 E2.46563
G1 X106.135 Y122.217 E2.51061
G1 X105.710 Y122.212 F7800.000
G1 Z1.550 F7800.000
G1 X107.901 Y122.225 F7800.000
G1 F600
G1 X92.094 Y122.225 E2.83638
G1 X93.524 Y122.004 E2.86621
G1 X96.154 Y121.732 E2.92069
G1 X98.766 Y121.599 E2.97459
G1 X101.366 Y121.603 E3.02819
G1 X103.963 Y121.743 E3.08178
G1 X106.387 Y121.993 E3.13201
G1 X107.827 Y122.214 E3.16203
G1 X107.401 Y122.205 F7800.000
G1 Z1.850 F7800.000
G1 X109.384 Y122.225 F7800.000
G1 F600
G1 X90.608 Y122.225 E3.54901
G1 X90.921 Y122.159 E3.55560
G1 X93.564 Y121.750 E3.61073
G1 X96.183 Y121.479 E3.66500
G1 X98.784 Y121.347 E3.71867
G1 X101.375 Y121.352 E3.77208
G1 X103.962 Y121.492 E3.82546
G1 X106.318 Y121.736 E3.87428
G1 X109.008 Y122.147 E3.93037
G1 X109.310 Y122.210 E3.93673
G1 X108.884 Y122.199 F7800.000
G1 Z2.150 F7800.000
G1 E1.93673 F2400.00000
G92 E0
G1 X101.431 Y121.664 F7800.000
G1 E2.00000 F2400.00000
G1 F600
G1 X98.615 Y121.664 E2.07596
G1 X101.356 Y121.661 E2.14990
G1 E0.14990 F2400.00000
G92 E0
G1 X110.590 Y122.225 F7800.000
G1 E2.00000 F2400.00000
G1 F731.66
G1 X89.409 Y122.225 E2.43655
G1 X90.971 Y121.905 E2.46942
G1 X93.604 Y121.496 E2.52434
G1 X96.213 Y121.226 E2.57840
G1 X98.803 Y121.095 E2.63186
G1 X101.384 Y121.100 E2.68505
G1 X103.960 Y121.242 E2.73822
G1 X106.538 Y121.518 E2.79166
G1 X109.126 Y121.925 E2.84564
G1 X110.516 Y122.210 E2.87490
G1 X110.091 Y122.196 F7800.000
G1 Z2.450 F7800.000
G1 E0.87490 F2400.00000
G92 E0
G1 X104.971 Y121.664 F7800.000
G1 E2.00000 F2400.00000
G1 F600
G1 X95.011 Y121.664 E2.26870
G1 X96.286 Y121.532 E2.30329
G1 X98.835 Y121.403 E2.37213
G1 X101.377 Y121.410 E2.44072
G1 X103.913 Y121.551 E2.50924
G1 X104.897 Y121.656 E2.53592
G1 E0.53592 F2400.00000
G92 E0
G1 X111.740 Y122.225 F7800.000
G1 E2.00000 F2400.00000
G1 F3000
G1 X88.256 Y122.225 E2.48403
G1 X91.021 Y121.650 E2.54224
G1 X93.644 Y121.242 E2.59695
G1 X96.242 Y120.973 E2.65079
G1 X98.823 Y120.843 E2.70404
G1 X101.393 Y120.849 E2.75702
G1 X103.959 Y120.992 E2.80998
G1 X106.527 Y121.268 E2.86321
G1 X109.104 Y121.676 E2.91699
G1 X111.668 Y122.207 E2.97095
G1 X111.242 Y122.191 F7800.000
G1 Z2.750 F7800.000
G1 E0.97095 F2400.00000
G92 E0
G1 X106.994 Y121.664 F7800.000
G1 E2.00000 F2400.00000
G1 F600
G1 X92.986 Y121.664 E2.37788
G1 X93.756 Y121.545 E2.39889
G1 X96.315 Y121.279 E2.46831
G1 X98.854 Y121.151 E2.53688
G1 X101.386 Y121.159 E2.60518
G1 X103.914 Y121.300 E2.67349
G1 X106.040 Y121.520 E2.73114
G1 X106.920 Y121.653 E2.75515
G1 E0.75515 F2400.00000
G92 E0
G1 X112.684 Y122.225 F7800.000
G1 E2.00000 F2400.00000
G1 F3000
G1 X87.326 Y122.225 E2.52263
G1 X88.628 Y121.896 E2.55030
G1 X91.071 Y121.395 E2.60171
G1 X93.684 Y120.988 E2.65621
G1 X96.272 Y120.720 E2.70984
G1 X98.842 Y120.591 E2.76288
G1 X101.402 Y120.598 E2.81565
G1 X103.958 Y120.741 E2.86841
G1 X106.111 Y120.964 E2.91301
G1 X108.769 Y121.366 E2.96842
G1 X111.475 Y121.918 E3.02534
G1 X112.611 Y122.207 E3.04949
G1 X112.185 Y122.189 F7800.000
G1 Z3.050 F7800.000
G1 E1.04949 F2400.00000
G92 E0
G1 X108.620 Y121.664 F7800.000
G1 E2.00000 F2400.00000
G1 F600
G1 X91.400 Y121.664 E2.46455
G1 X93.795 Y121.291 E2.52996
G1 X96.345 Y121.027 E2.59911
G1 X98.873 Y120.899 E2.66739
G1 X101.395 Y120.907 E2.73542
G1 X103.913 Y121.050 E2.80345
G1 X105.971 Y121.262 E2.85927
G1 X108.547 Y121.652 E2.92955
G1 E0.92955 F2400.00000
G92 E0
G1 X113.627 Y122.225 F7800.000
G1 E2.00000 F2400.00000
G1 F3000
G1 X86.375 Y122.225 E2.56167
G1 X88.750 Y121.626 E2.61216
G1 X91.121 Y121.140 E2.66204
G1 X93.723 Y120.735 E2.71632
G1 X96.301 Y120.467 E2.76974
G1 X98.861 Y120.338 E2.82257
G1 X101.411 Y120.347 E2.87513
G1 X103.957 Y120.491 E2.92768
G1 X106.042 Y120.706 E2.97087
G1 X108.689 Y121.106 E3.02606
G1 X111.385 Y121.655 E3.08275
G1 X113.554 Y122.207 E3.12889
G1 X113.128 Y122.188 F7800.000
G1 Z3.350 F7800.000
G1 E1.12889 F2400.00000
G92 E0
G1 X109.820 Y121.664 F7800.000
G1 E2.00000 F2400.00000
G1 F615.736
G1 X90.177 Y121.664 E2.52991
G1 X91.272 Y121.437 E2.56007
G1 X93.835 Y121.037 E2.63007
G1 X96.374 Y120.774 E2.69893
G1 X98.892 Y120.647 E2.76694
G1 X101.403 Y120.656 E2.83468
G1 X103.911 Y120.799 E2.90245
G1 X105.902 Y121.005 E2.95644
G1 X108.512 Y121.398 E3.02763
G1 X109.747 Y121.649 E3.06163
G1 E1.06163 F2400.00000
G92 E0
G1 X114.484 Y122.225 F7800.000
G1 E2.00000 F2400.00000
G1 F3000
G1 X85.524 Y122.225 E2.59687
G1 X86.049 Y122.066 E2.60817
G1 X88.549 Y121.429 E2.66134
G1 X91.171 Y120.886 E2.71654
G1 X93.763 Y120.481 E2.77061
G1 X96.331 Y120.214 E2.82381
G1 X98.880 Y120.086 E2.87642
G1 X101.420 Y120.096 E2.92878
G1 X103.956 Y120.240 E2.98112
G1 X105.973 Y120.449 E3.02290
G1 X108.609 Y120.846 E3.07786
G1 X111.294 Y121.392 E3.13432
G1 X114.034 Y122.089 E3.19260
G1 X114.412 Y122.203 E3.20073
G1 X113.985 Y122.182 F7800.000
G1 Z3.650 F7800.000
G1 E1.20073 F2400.00000
G92 E0
G1 X111.023 Y121.664 F7800.000
G1 E2.00000 F2400.00000
G1 F1413.8
G1 X89.004 Y121.664 E2.59401
G1 X91.326 Y121.182 E2.65799
G1 X93.874 Y120.783 E2.72758
G1 X96.403 Y120.521 E2.79617
G1 X98.913 Y120.395 E2.86397
G1 X101.412 Y120.405 E2.93138
G1 X103.910 Y120.549 E2.99888
G1 X105.833 Y120.748 E3.05103
G1 X108.432 Y121.138 E3.12193
G1 X110.950 Y121.649 E3.19123
G1 E1.19123 F2400.00000
G92 E0
G1 X115.240 Y122.225 F7800.000
G1 E2.00000 F2400.00000
G1 F1178.17
G1 X84.757 Y122.225 E2.62826
G1 X85.960 Y121.855 E2.65419
G1 X88.610 Y121.174 E2.71058
G1 X91.223 Y120.631 E2.76559
G1 X93.803 Y120.227 E2.81940
G1 X96.360 Y119.962 E2.87240
G1 X98.900 Y119.834 E2.92482
G1 X101.429 Y119.844 E2.97694
G1 X103.955 Y119.990 E3.02908
G1 X105.904 Y120.191 E3.06946
G1 X108.530 Y120.586 E3.12419
G1 X111.203 Y121.129 E3.18041
G1 X113.932 Y121.823 E3.23845
G1 X115.169 Y122.203 E3.26511
G1 X114.742 Y122.181 F7800.000
G1 Z3.950 F7800.000
G1 E1.26511 F2400.00000
G92 E0
G1 X104.790 Y121.029 F7800.000
G1 E2.00000 F2400.00000
G1 F600
G1 X95.258 Y121.029 E2.25715
G1 X96.481 Y120.902 E2.29033
G1 X98.947 Y120.779 E2.35692
G1 X101.401 Y120.789 E2.42313
G1 X103.858 Y120.932 E2.48951
G1 X104.716 Y121.021 E2.51278
G1 E0.51278 F2400.00000
G92 E0
G1 X111.978 Y121.664 F7800.000
G1 E2.00000 F2400.00000
G1 F2009.01
G1 X88.011 Y121.664 E2.64653
G1 X88.796 Y121.464 E2.66840
G1 X91.372 Y120.928 E2.73938
G1 X93.915 Y120.529 E2.80881
G1 X96.433 Y120.268 E2.87709
G1 X98.932 Y120.143 E2.94461
G1 X101.421 Y120.154 E3.01174
G1 X103.909 Y120.299 E3.07897
G1 X105.764 Y120.490 E3.12929
G1 X108.356 Y120.879 E3.19998
G1 X110.987 Y121.412 E3.27239
G1 X111.905 Y121.646 E3.29796
G1 E1.29796 F2400.00000
G92 E0
G1 X116.031 Y122.225 F7800.000
G1 E2.00000 F2400.00000
G1 F3000
G1 X83.970 Y122.225 E2.66078
G1 X86.318 Y121.517 E2.71133
G1 X88.670 Y120.918 E2.76134
G1 X91.272 Y120.376 E2.81612
G1 X93.843 Y119.973 E2.86975
G1 X96.390 Y119.709 E2.92253
G1 X98.920 Y119.582 E2.97474
G1 X101.438 Y119.593 E3.02665
G1 X103.954 Y119.740 E3.07858
G1 X105.835 Y119.934 E3.11755
G1 X108.451 Y120.326 E3.17208
G1 X111.112 Y120.866 E3.22804
G1 X113.830 Y121.557 E3.28585
G1 X115.959 Y122.203 E3.33169
G1 X115.533 Y122.180 F7800.000
G1 Z4.250 F7800.000
G1 E1.33169 F2400.00000
G92 E0
G1 X106.720 Y121.029 F7800.000
G1 E2.00000 F2400.00000
G1 F656.234
G1 X93.254 Y121.029 E2.36327
G1 X94.037 Y120.906 E2.38465
G1 X96.511 Y120.649 E2.45174
G1 X98.966 Y120.527 E2.51805
G1 X101.415 Y120.538 E2.58412
G1 X103.129 Y120.627 E2.63042
G1 X103.844 Y120.681 E2.64977
G1 X105.616 Y120.864 E2.69781
G1 X106.646 Y121.018 E2.72591
G1 E0.72591 F2400.00000
G92 E0
G1 X112.921 Y121.664 F7800.000
G1 E2.00000 F2400.00000
G1 F2624.93
G1 X87.068 Y121.664 E2.69743
G1 X88.857 Y121.208 E2.74724
G1 X91.423 Y120.673 E2.81794
G1 X93.955 Y120.275 E2.88708
G1 X96.462 Y120.015 E2.95508
G1 X98.951 Y119.891 E3.02232
G1 X101.433 Y119.903 E3.08925
G1 X103.901 Y120.048 E3.15595
G1 X105.695 Y120.233 E3.20462
G1 X108.276 Y120.619 E3.27501
G1 X108.859 Y120.732 E3.29103
G1 X110.896 Y121.149 E3.34712
G1 X112.848 Y121.646 E3.40147
G1 E1.40147 F2400.00000
G92 E0
G1 X116.762 Y122.225 F7800.000
G1 E2.00000 F2400.00000
G1 F3000
G1 X83.243 Y122.225 E2.69083
G1 X83.579 Y122.108 E2.69815
G1 X86.453 Y121.243 E2.76002
G1 X88.731 Y120.662 E2.80846
G1 X91.322 Y120.121 E2.86302
G1 X93.882 Y119.719 E2.91644
G1 X96.419 Y119.456 E2.96900
G1 X98.939 Y119.330 E3.02100
G1 X101.448 Y119.342 E3.07272
G1 X103.951 Y119.489 E3.12438
G1 X105.766 Y119.677 E3.16199
G1 X108.371 Y120.066 E3.21628
G1 X111.021 Y120.603 E3.27201
G1 X113.729 Y121.291 E3.32959
G1 X116.691 Y122.200 E3.39345
G1 X116.264 Y122.175 F7800.000
G1 Z4.550 F7800.000
G1 E1.39345 F2400.00000
G92 E0
G1 X108.303 Y121.029 F7800.000
G1 E2.00000 F2400.00000
G1 F786.841
G1 X91.682 Y121.029 E2.44840
G1 X94.077 Y120.652 E2.51381
G1 X96.540 Y120.396 E2.58062
G1 X98.985 Y120.275 E2.64664
G1 X101.424 Y120.287 E2.71244
G1 X103.843 Y120.430 E2.77782
G1 X105.547 Y120.606 E2.82403
G1 X108.230 Y121.014 E2.89723
G1 E0.89723 F2400.00000
G92 E0
G1 X113.801 Y121.664 F7800.000
G1 E2.00000 F2400.00000
G1 F3147.36
G1 X86.218 Y121.664 E2.74410
G1 X86.738 Y121.508 E2.75873
G1 X88.918 Y120.953 E2.81943
G1 X91.473 Y120.418 E2.88986
G1 X93.995 Y120.021 E2.95872
G1 X96.492 Y119.762 E3.02643
G1 X98.971 Y119.639 E3.09339
G1 X101.442 Y119.651 E3.16005
G1 X103.111 Y119.738 E3.20514
G1 X103.900 Y119.797 E3.22648
G1 X105.626 Y119.976 E3.27331
G1 X108.193 Y120.358 E3.34332
G1 X110.806 Y120.887 E3.41523
G1 X113.729 Y121.643 E3.49669
G1 E1.49669 F2400.00000
G92 E0
G1 X117.414 Y122.225 F7800.000
G1 E2.00000 F2400.00000
G1 F3000
G1 X82.591 Y122.225 E2.71770
G1 X83.726 Y121.828 E2.74248
G1 X86.588 Y120.968 E2.80407
G1 X88.791 Y120.406 E2.85094
G1 X91.372 Y119.866 E2.90528
G1 X93.922 Y119.465 E2.95849
G1 X96.449 Y119.203 E3.01084
G1 X98.958 Y119.078 E3.06262
G1 X101.458 Y119.091 E3.11414
G1 X103.146 Y119.178 E3.14899
G1 X103.949 Y119.239 E3.16559
G1 X105.697 Y119.419 E3.20179
G1 X108.290 Y119.806 E3.25584
G1 X110.931 Y120.340 E3.31136
G1 X113.627 Y121.025 E3.36869
G1 X116.386 Y121.864 E3.42814
G1 X117.343 Y122.200 E3.44904
G1 X116.916 Y122.174 F7800.000
G1 Z4.850 F7800.000
G1 E1.44904 F2400.00000
G92 E0
G1 X109.511 Y121.029 F7800.000
G1 E2.00000 F2400.00000
G1 F894.464
G1 X90.493 Y121.029 E2.51302
G1 X91.638 Y120.789 E2.54458
G1 X94.117 Y120.398 E2.61227
G1 X96.570 Y120.143 E2.67879
G1 X99.004 Y120.023 E2.74453
G1 X101.432 Y120.036 E2.81006
G1 X103.012 Y120.117 E2.85273
G1 X103.842 Y120.180 E2.87517
G1 X105.478 Y120.349 E2.91955
G1 X108.004 Y120.724 E2.98844
G1 X109.437 Y121.014 E3.02788
G1 E1.02788 F2400.00000
G92 E0
G1 X114.576 Y121.664 F7800.000
G1 E2.00000 F2400.00000
G1 F3577.86
G1 X85.419 Y121.664 E2.78655
G1 X86.397 Y121.368 E2.81411
G1 X88.981 Y120.697 E2.88612
G1 X91.524 Y120.163 E2.95622
G1 X94.035 Y119.768 E3.02479
G1 X96.521 Y119.509 E3.09223
G1 X98.990 Y119.387 E3.15890
G1 X101.451 Y119.400 E3.22529
G1 X103.052 Y119.483 E3.26856
G1 X103.899 Y119.547 E3.29145
G1 X105.557 Y119.718 E3.33644
G1 X108.114 Y120.098 E3.40616
G1 X110.715 Y120.624 E3.47775
G1 X113.374 Y121.300 E3.55176
G1 X114.504 Y121.643 E3.58363
G1 E1.58363 F2400.00000
G92 E0
G1 X118.054 Y122.225 F7800.000
G1 E2.00000 F2400.00000
G1 F3000
G1 X81.938 Y122.225 E2.74437
G1 X83.873 Y121.548 E2.78663
G1 X86.245 Y120.828 E2.83771
G1 X88.853 Y120.151 E2.89324
G1 X91.422 Y119.612 E2.94735
G1 X93.962 Y119.211 E3.00034
G1 X96.478 Y118.950 E3.05248
G1 X98.977 Y118.826 E3.10405
G1 X101.467 Y118.840 E3.15536
G1 X103.088 Y118.923 E3.18882
G1 X103.948 Y118.988 E3.20660
G1 X105.627 Y119.162 E3.24139
G1 X108.211 Y119.546 E3.29521
G1 X110.840 Y120.077 E3.35050
G1 X113.525 Y120.760 E3.40759
G1 X115.969 Y121.501 E3.46024
G1 X117.983 Y122.200 E3.50419
G1 X117.557 Y122.173 F7800.000
G1 Z5.150 F7800.000
G1 E1.50419 F2400.00000
G92 E0
G1 X110.672 Y121.029 F7800.000
G1 E2.00000 F2400.00000
G1 F1800.6
G1 X89.334 Y121.029 E2.57563
G1 X91.689 Y120.534 E2.64055
G1 X94.157 Y120.144 E2.70795
G1 X96.599 Y119.890 E2.77419
G1 X99.023 Y119.771 E2.83964
G1 X101.441 Y119.784 E2.90489
G1 X102.954 Y119.863 E2.94575
G1 X103.841 Y119.930 E2.96975
G1 X105.409 Y120.092 E3.01228
G1 X107.925 Y120.464 E3.08088
G1 X110.599 Y121.010 E3.15452
G1 E1.15452 F2400.00000
G92 E0
G1 X115.344 Y121.664 F7800.000
G1 E2.00000 F2400.00000
G1 F1800.6
G1 X84.672 Y121.664 E2.82743
G1 X86.470 Y121.110 E2.87819
G1 X89.042 Y120.441 E2.94988
G1 X91.574 Y119.908 E3.01968
G1 X94.075 Y119.514 E3.08797
G1 X96.550 Y119.256 E3.15513
G1 X99.009 Y119.135 E3.22152
G1 X101.460 Y119.149 E3.28764
G1 X102.994 Y119.228 E3.32909
G1 X103.897 Y119.297 E3.35353
G1 X105.489 Y119.461 E3.39668
G1 X108.034 Y119.838 E3.46610
G1 X110.624 Y120.361 E3.53739
G1 X113.272 Y121.034 E3.61107
G1 X115.272 Y121.643 E3.66749
G1 E1.66749 F2400.00000
G92 E0
G1 X118.718 Y122.225 F7800.000
G1 E2.00000 F2400.00000
G1 F3000
G1 X81.282 Y122.225 E2.77156
G1 X83.675 Y121.385 E2.82382
G1 X86.317 Y120.571 E2.88080
G1 X88.913 Y119.895 E2.93610
G1 X91.473 Y119.357 E2.98999
G1 X94.002 Y118.958 E3.04277
G1 X96.508 Y118.697 E3.09469
G1 X98.996 Y118.574 E3.14605
G1 X101.476 Y118.588 E3.19715
G1 X103.030 Y118.669 E3.22922
G1 X103.947 Y118.738 E3.24819
G1 X105.558 Y118.905 E3.28157
G1 X108.131 Y119.285 E3.33516
G1 X110.749 Y119.814 E3.39022
G1 X113.423 Y120.494 E3.44707
G1 X116.160 Y121.327 E3.50603
G1 X118.647 Y122.200 E3.56037
G1 X118.221 Y122.172 F7800.000
G1 Z5.450 F7800.000
G1 E1.56037 F2400.00000
G92 E0
G1 X111.616 Y121.029 F7800.000
G1 E2.00000 F2400.00000
G1 F2944.59
G1 X88.386 Y121.029 E2.62665
G1 X89.249 Y120.804 E2.65068
G1 X91.740 Y120.279 E2.71936
G1 X94.197 Y119.890 E2.78647
G1 X96.628 Y119.637 E2.85242
G1 X99.041 Y119.518 E2.91759
G1 X101.450 Y119.533 E2.98257
G1 X102.895 Y119.608 E3.02161
